src/assets/inicio/github-inicio.svg

<svg width="26" height="26" viewBox="0 0 26 26" fill="none" xmlns="http://www.w3.org/2000/svg">
<g clip-path="url(#clip0_19_2862)">
<path d="M13 2.16667C18.9735 2.16667 23.8333 7.0265 23.8333 13C23.8333 18.9735 18.9735 23.8333 13 23.8333C7.0265 23.8333 2.16667 18.9735 2.16667 13C2.16667 7.0265 7.0265 2.16667 13 2.16667ZM13 0C5.82075 0 0 5.82075 0 13C0 20.1793 5.82075 26 13 26C20.1793 26 26 20.1793 26 13C26 5.82075 20.1793 0 13 0ZM13 6.5C9.41092 6.5 6.5 9.40983 6.5 13C6.5 15.8719 8.36225 18.3083 10.946 19.1674C11.271 19.2281 11.375 19.0266 11.375 18.8543V17.6443C9.56692 18.0375 9.18992 16.8783 9.18992 16.8783C8.89525 16.1276 8.46842 15.9272 8.46842 15.9272C7.87908 15.5231 8.51283 15.5318 8.51283 15.5318C9.16608 15.5773 9.5095 16.2023 9.5095 16.2023C10.0891 17.1958 11.0294 16.9087 11.401 16.7429C11.4595 16.3226 11.6274 16.0366 11.8138 15.8741C10.3697 15.7094 8.853 15.1515 8.853 12.662C8.853 11.9524 9.1065 11.3728 9.5225 10.9178C9.45533 10.7521 9.23217 10.0902 9.58533 9.19533C9.58533 9.19533 10.1313 9.02092 11.3728 9.86158C11.8918 9.7175 12.4475 9.646 13 9.64275C13.5525 9.64492 14.1083 9.7175 14.6283 9.86158C15.8698 9.02092 16.4136 9.19533 16.4136 9.19533C16.7678 10.0902 16.5447 10.7521 16.4786 10.9157C16.8957 11.3707 17.147 11.9503 17.147 12.6598C17.147 15.1569 15.626 15.7062 14.1787 15.8665C14.4127 16.068 14.625 16.4634 14.625 17.0701V18.8533C14.625 19.0266 14.729 19.2292 15.0583 19.1653C17.6399 18.3062 19.5 15.8708 19.5 13C19.5 9.40983 16.5891 6.5 13 6.5Z" fill="#FDC500"/>
</g>
<defs>
<clipPath id="clip0_19_2862">
<rect width="26" height="26" fill="white"/>
</clipPath>
</defs>
</svg>

<svg xmlns="http://www.w3.org/2000/svg" width="26" height="26" fill="none"><g clip-path="url(#a)"><path fill="#FDC500" d="M13 2.167c5.974 0 10.833 4.86 10.833 10.833 0 5.974-4.86 10.833-10.833 10.833S2.167 18.973 2.167 13 7.027 2.167 13 2.167ZM13 0C5.82 0 0 5.82 0 13s5.82 13 13 13 13-5.82 13-13S20.18 0 13 0Zm0 6.5a6.5 6.5 0 0 0-2.054 12.667c.325.061.429-.14.429-.313v-1.21c-1.808.394-2.185-.766-2.185-.766-.295-.75-.722-.95-.722-.95-.589-.405.045-.396.045-.396.653.045.996.67.996.67.58.994 1.52.707 1.892.54.059-.42.226-.705.413-.868-1.444-.165-2.961-.723-2.961-3.212 0-.71.254-1.29.67-1.744-.068-.166-.29-.828.062-1.723 0 0 .546-.174 1.788.667A6.265 6.265 0 0 1 13 9.642a6.233 6.233 0 0 1 1.628.22c1.242-.841 1.786-.667 1.786-.667.354.895.13 1.557.065 1.72.417.456.668 1.035.668 1.745 0 2.497-1.521 3.046-2.968 3.207.234.201.446.596.446 1.203v1.783c0 .174.104.376.433.312A6.5 6.5 0 0 0 13 6.5Z"/></g><defs><clipPath id="a"><path fill="#fff" d="M0 0h26v26H0z"/></clipPath></defs></svg>
